!!!COM: Music21
!!!OTL: Muiñeira dos Dezas
!!!OMV: pezas_muineiras_muineira-dos-dezas_muineira-dos-dezas-partitura.musicxml
**kern
*I"Gaita
*I'Bag
*clefG^2
*k[]
*M6/8
*MM180
=1
!LO:TX:a:t=[quarter-dot]=120
4.r
4gg
8ccc
=||
8bbL
8gg
8bbJ
8aaL
8ff
8aaJ
=
8ggL
8ee
8ggJ
8eeL
8gg
8eeJ
=
8ffL
8dd
8eeJ
8ffL
8gg
8aaJ
=
4gg
8ee
4gg
8ccc
=
8bbL
8gg
8bbJ
8aaL
8ff
8aaJ
=
8ggL
8ee
8ggJ
8eeL
8gg
8eeJ
!!linebreak:original
=
8ffL
8aa
8ggJ
8ffL
8ee
8ddJ
=
4.cc
4gg
8ccc
=||
8bbL
8gg
8bbJ
8aaL
8ff
8aaJ
=
8ggL
8ee
8ggJ
8eeL
8gg
8eeJ
=
8ffL
8dd
8eeJ
8ffL
8gg
8aaJ
=
4gg
8ee
4gg
8ccc
=
8bbL
8gg
8bbJ
8aaL
8ff
8aaJ
=
8ggL
8ee
8ggJ
8eeL
8gg
8eeJ
!!linebreak:original
=
8ffL
8aa
8ggJ
8ffL
8ee
8ddJ
=
2cc
8ggL
8ffJ
=||
8eeL
8dd
8eeJ
8ffL
8ee
8ffJ
=
2gg
8bbL
8aaJ
=
4gg
[8ff
8ffL]
8aa
8ggJ
=
4ff
[8ee
8eeL]
8gg
8ffJ
=
8eeL
8dd
8eeJ
8ffL
8ee
8ffJ
=
2gg
8bbL
8aaJ
!!linebreak:original
=
4gg
8ff
8aaL
8gg
8ffJ
=
2ee
8ggL
8ffJ
=||
8eeL
8dd
8eeJ
8ffL
8ee
8ffJ
=
2gg
8bbL
8aaJ
=
4gg
[8ff
8ffL]
8aa
8ggJ
=
4ff
[8ee
8eeL]
8gg
8ffJ
=
8eeL
8dd
8eeJ
8ffL
8ee
8ffJ
=
2gg
8bbL
8aaJ
=
4gg
8ff
8aaL
8gg
8ffJ
!!linebreak:original
=||
4.ee
4gg
8ccc
=||
8ee
8r
2r
==
*-
